static/cards/FrenchDeck/default/card_clubs_06.svg

<svg width="219" height="304" viewBox="0 0 219 304" fill="none" xmlns="http://www.w3.org/2000/svg">
<g filter="url(#filter0_d_18_632)">
<g clip-path="url(#clip0_18_632)">
<rect x="8" y="4" width="203" height="288" rx="10" fill="white"/>
<path d="M16.0308 31.1274C16.0308 21.498 19.7344 16.1528 26.3809 16.1528C28.5229 16.1528 30.585 16.7334 32.1064 17.7744C33.4277 18.6353 34.2285 19.7363 34.2285 20.6572C34.2285 21.5181 33.6079 22.1587 32.7471 22.1587C32.1865 22.1587 31.7661 21.9385 31.0454 21.2378C29.604 19.8164 28.1025 19.1758 26.3208 19.1758C21.8564 19.1758 19.4941 23.0996 19.4341 30.5869H19.5942C20.5151 28.1445 23.3779 26.4229 26.501 26.4229C31.5859 26.4229 35.1494 30.0864 35.1494 35.3115C35.1494 40.8169 31.3857 44.5605 25.8203 44.5605C22.437 44.5605 19.7344 43.1592 18.0928 40.5767C16.7114 38.3745 16.0308 35.2715 16.0308 31.1274ZM19.9346 35.4316C19.9346 39.0151 22.417 41.5576 25.9604 41.5576C29.4038 41.5576 31.7061 39.1353 31.7061 35.4517C31.7061 31.8081 29.3838 29.4058 25.8203 29.4058C22.3569 29.4058 19.9346 31.8882 19.9346 35.4316Z" fill="#211C1D"/>
<path d="M24.0324 72C23.815 72 23.6387 71.826 23.6387 71.6115C23.6387 70.8912 24.9316 68.2013 25.1901 66.0959C25.2179 65.8695 24.886 65.7854 24.7639 65.9791C24.0982 67.0359 23.1904 68.515 20.9784 68.4633L20.9355 68.4647C20.9068 68.4656 20.8781 68.4666 20.8492 68.4666C18.4471 68.4666 16.5 66.3541 16.5 63.7483C16.5 61.1425 18.4471 59.03 20.8492 59.03C21.3182 59.03 21.7697 59.1108 22.1928 59.26C22.2915 59.2948 22.3921 59.1811 22.3431 59.0897C21.9682 58.3927 21.7531 57.5823 21.7531 56.717C21.7531 54.1483 23.625 52 26 52C28.375 52 30.2469 54.1483 30.2469 56.717C30.2469 57.5823 30.0318 58.3927 29.6569 59.0897C29.6079 59.1811 29.7085 59.2948 29.8072 59.26C30.2303 59.1108 30.6818 59.03 31.1508 59.03C33.5529 59.03 35.5 61.1425 35.5 63.7483C35.5 66.3541 33.5529 68.4666 31.1508 68.4666C31.1219 68.4666 31.0932 68.4656 31.0645 68.4647L31.0216 68.4633C28.8096 68.515 27.9018 67.0359 27.2361 65.9791C27.114 65.7854 26.7821 65.8695 26.8099 66.0959C27.0684 68.2013 28.3613 70.8913 28.3613 71.6114C28.3613 71.826 28.185 72 27.9676 72H24.0324Z" fill="#211C1D"/>
<path d="M202.969 264.873C202.969 274.502 199.266 279.847 192.619 279.847C190.477 279.847 188.415 279.267 186.894 278.226C185.572 277.365 184.771 276.264 184.771 275.343C184.771 274.482 185.392 273.841 186.253 273.841C186.813 273.841 187.234 274.062 187.955 274.762C189.396 276.184 190.897 276.824 192.679 276.824C197.144 276.824 199.506 272.9 199.566 265.413L199.406 265.413C198.485 267.855 195.622 269.577 192.499 269.577C187.414 269.577 183.851 265.914 183.851 260.688C183.851 255.183 187.614 251.439 193.18 251.439C196.563 251.439 199.266 252.841 200.907 255.423C202.289 257.625 202.969 260.729 202.969 264.873ZM199.065 260.568C199.065 256.985 196.583 254.442 193.04 254.442C189.596 254.442 187.294 256.865 187.294 260.548C187.294 264.192 189.616 266.594 193.18 266.594C196.643 266.594 199.065 264.112 199.065 260.568Z" fill="#211C1D"/>
<path d="M194.968 224C195.185 224 195.361 224.174 195.361 224.389C195.361 225.109 194.068 227.799 193.81 229.904C193.782 230.131 194.114 230.215 194.236 230.021C194.902 228.964 195.81 227.485 198.022 227.537L198.065 227.535C198.093 227.534 198.122 227.533 198.151 227.533C200.553 227.533 202.5 229.646 202.5 232.252C202.5 234.858 200.553 236.97 198.151 236.97C197.682 236.97 197.23 236.889 196.807 236.74C196.708 236.705 196.608 236.819 196.657 236.91C197.032 237.607 197.247 238.418 197.247 239.283C197.247 241.852 195.375 244 193 244C190.625 244 188.753 241.852 188.753 239.283C188.753 238.418 188.968 237.607 189.343 236.91C189.392 236.819 189.292 236.705 189.193 236.74C188.77 236.889 188.318 236.97 187.849 236.97C185.447 236.97 183.5 234.858 183.5 232.252C183.5 229.646 185.447 227.533 187.849 227.533C187.878 227.533 187.907 227.534 187.935 227.535L187.978 227.537C190.19 227.485 191.098 228.964 191.764 230.021C191.886 230.215 192.218 230.131 192.19 229.904C191.932 227.799 190.639 225.109 190.639 224.389C190.639 224.174 190.815 224 191.032 224L194.968 224Z" fill="#211C1D"/>
<path d="M60.84 76C60.325 76 59.9075 75.5825 59.9075 75.0675C59.9075 73.339 62.9696 66.8831 63.5817 61.8301C63.6476 61.2867 62.8615 61.0849 62.5725 61.5498C60.9958 64.0863 58.8456 67.6359 53.6068 67.512L53.5051 67.5152C53.4372 67.5176 53.3693 67.5199 53.3008 67.5199C47.6117 67.5199 43 62.4499 43 56.1959C43 49.9419 47.6117 44.8719 53.3008 44.8719C54.4114 44.8719 55.4808 45.066 56.483 45.4239C56.7167 45.5074 56.9551 45.2346 56.8388 45.0153C55.951 43.3424 55.4416 41.3975 55.4416 39.3209C55.4416 33.156 59.875 28 65.5 28C71.125 28 75.5584 33.156 75.5584 39.3209C75.5584 41.3975 75.049 43.3424 74.1612 45.0153C74.0449 45.2346 74.2833 45.5074 74.517 45.4239C75.5192 45.066 76.5886 44.8719 77.6992 44.8719C83.3883 44.8719 88 49.9419 88 56.1959C88 62.4499 83.3883 67.5199 77.6992 67.5199C77.6307 67.5199 77.5628 67.5176 77.4949 67.5152L77.3932 67.512C72.1544 67.6359 70.0042 64.0863 68.4275 61.5498C68.1385 61.0849 67.3524 61.2867 67.4183 61.8301C68.0304 66.883 71.0925 73.339 71.0925 75.0675C71.0925 75.5825 70.675 76 70.16 76H60.84Z" fill="#211C1D"/>
<path d="M60.84 220C60.325 220 59.9075 220.418 59.9075 220.933C59.9075 222.661 62.9696 229.117 63.5817 234.17C63.6476 234.713 62.8615 234.915 62.5725 234.45C60.9958 231.914 58.8456 228.364 53.6068 228.488L53.5051 228.485C53.4372 228.482 53.3693 228.48 53.3008 228.48C47.6117 228.48 43 233.55 43 239.804C43 246.058 47.6117 251.128 53.3008 251.128C54.4114 251.128 55.4808 250.934 56.483 250.576C56.7167 250.493 56.9551 250.765 56.8388 250.985C55.951 252.658 55.4416 254.603 55.4416 256.679C55.4416 262.844 59.875 268 65.5 268C71.125 268 75.5584 262.844 75.5584 256.679C75.5584 254.603 75.049 252.658 74.1612 250.985C74.0449 250.765 74.2833 250.493 74.517 250.576C75.5192 250.934 76.5886 251.128 77.6992 251.128C83.3883 251.128 88 246.058 88 239.804C88 233.55 83.3883 228.48 77.6992 228.48C77.6307 228.48 77.5628 228.482 77.4949 228.485L77.3932 228.488C72.1544 228.364 70.0042 231.914 68.4275 234.45C68.1385 234.915 67.3524 234.713 67.4183 234.17C68.0304 229.117 71.0925 222.661 71.0925 220.933C71.0925 220.418 70.675 220 70.16 220H60.84Z" fill="#211C1D"/>
<path d="M148.84 76C148.325 76 147.908 75.5825 147.908 75.0675C147.908 73.339 150.97 66.8831 151.582 61.8301C151.648 61.2867 150.862 61.0849 150.573 61.5498C148.996 64.0863 146.846 67.6359 141.607 67.512L141.505 67.5152C141.437 67.5176 141.369 67.5199 141.301 67.5199C135.612 67.5199 131 62.4499 131 56.1959C131 49.9419 135.612 44.8719 141.301 44.8719C142.411 44.8719 143.481 45.066 144.483 45.4239C144.717 45.5074 144.955 45.2346 144.839 45.0153C143.951 43.3424 143.442 41.3975 143.442 39.3209C143.442 33.156 147.875 28 153.5 28C159.125 28 163.558 33.156 163.558 39.3209C163.558 41.3975 163.049 43.3424 162.161 45.0153C162.045 45.2346 162.283 45.5074 162.517 45.4239C163.519 45.066 164.589 44.8719 165.699 44.8719C171.388 44.8719 176 49.9419 176 56.1959C176 62.4499 171.388 67.5199 165.699 67.5199C165.631 67.5199 165.563 67.5176 165.495 67.5152L165.393 67.512C160.154 67.6359 158.004 64.0863 156.427 61.5498C156.138 61.0849 155.352 61.2867 155.418 61.8301C156.03 66.883 159.092 73.339 159.092 75.0675C159.092 75.5825 158.675 76 158.16 76H148.84Z" fill="#211C1D"/>
<path d="M60.84 172C60.325 172 59.9075 171.582 59.9075 171.067C59.9075 169.339 62.9696 162.883 63.5817 157.83C63.6476 157.287 62.8615 157.085 62.5725 157.55C60.9958 160.086 58.8456 163.636 53.6068 163.512L53.5051 163.515C53.4372 163.518 53.3693 163.52 53.3008 163.52C47.6117 163.52 43 158.45 43 152.196C43 145.942 47.6117 140.872 53.3008 140.872C54.4114 140.872 55.4808 141.066 56.483 141.424C56.7167 141.507 56.9551 141.235 56.8388 141.015C55.951 139.342 55.4416 137.397 55.4416 135.321C55.4416 129.156 59.875 124 65.5 124C71.125 124 75.5584 129.156 75.5584 135.321C75.5584 137.397 75.049 139.342 74.1612 141.015C74.0449 141.235 74.2833 141.507 74.517 141.424C75.5192 141.066 76.5886 140.872 77.6992 140.872C83.3883 140.872 88 145.942 88 152.196C88 158.45 83.3883 163.52 77.6992 163.52C77.6307 163.52 77.5628 163.518 77.4949 163.515L77.3932 163.512C72.1544 163.636 70.0042 160.086 68.4275 157.55C68.1385 157.085 67.3524 157.287 67.4183 157.83C68.0304 162.883 71.0925 169.339 71.0925 171.067C71.0925 171.582 70.675 172 70.16 172H60.84Z" fill="#211C1D"/>
<path d="M148.84 172C148.325 172 147.908 171.582 147.908 171.067C147.908 169.339 150.97 162.883 151.582 157.83C151.648 157.287 150.862 157.085 150.573 157.55C148.996 160.086 146.846 163.636 141.607 163.512L141.505 163.515C141.437 163.518 141.369 163.52 141.301 163.52C135.612 163.52 131 158.45 131 152.196C131 145.942 135.612 140.872 141.301 140.872C142.411 140.872 143.481 141.066 144.483 141.424C144.717 141.507 144.955 141.235 144.839 141.015C143.951 139.342 143.442 137.397 143.442 135.321C143.442 129.156 147.875 124 153.5 124C159.125 124 163.558 129.156 163.558 135.321C163.558 137.397 163.049 139.342 162.161 141.015C162.045 141.235 162.283 141.507 162.517 141.424C163.519 141.066 164.589 140.872 165.699 140.872C171.388 140.872 176 145.942 176 152.196C176 158.45 171.388 163.52 165.699 163.52C165.631 163.52 165.563 163.518 165.495 163.515L165.393 163.512C160.154 163.636 158.004 160.086 156.427 157.55C156.138 157.085 155.352 157.287 155.418 157.83C156.03 162.883 159.092 169.339 159.092 171.067C159.092 171.582 158.675 172 158.16 172H148.84Z" fill="#211C1D"/>
<path d="M148.84 220C148.325 220 147.908 220.418 147.908 220.933C147.908 222.661 150.97 229.117 151.582 234.17C151.648 234.713 150.862 234.915 150.573 234.45C148.996 231.914 146.846 228.364 141.607 228.488L141.505 228.485C141.437 228.482 141.369 228.48 141.301 228.48C135.612 228.48 131 233.55 131 239.804C131 246.058 135.612 251.128 141.301 251.128C142.411 251.128 143.481 250.934 144.483 250.576C144.717 250.493 144.955 250.765 144.839 250.985C143.951 252.658 143.442 254.603 143.442 256.679C143.442 262.844 147.875 268 153.5 268C159.125 268 163.558 262.844 163.558 256.679C163.558 254.603 163.049 252.658 162.161 250.985C162.045 250.765 162.283 250.493 162.517 250.576C163.519 250.934 164.589 251.128 165.699 251.128C171.388 251.128 176 246.058 176 239.804C176 233.55 171.388 228.48 165.699 228.48C165.631 228.48 165.563 228.482 165.495 228.485L165.393 228.488C160.154 228.364 158.004 231.914 156.427 234.45C156.138 234.915 155.352 234.713 155.418 234.17C156.03 229.117 159.092 222.661 159.092 220.933C159.092 220.418 158.675 220 158.16 220H148.84Z" fill="#211C1D"/>
</g>
</g>
<defs>
<filter id="filter0_d_18_632" x="0" y="0" width="219" height="304" filterUnits="userSpaceOnUse" color-interpolation-filters="sRGB">
<feFlood flood-opacity="0" result="BackgroundImageFix"/>
<feColorMatrix in="SourceAlpha" type="matrix" values="0 0 0 0 0 0 0 0 0 0 0 0 0 0 0 0 0 0 127 0" result="hardAlpha"/>
<feOffset dy="4"/>
<feGaussianBlur stdDeviation="4"/>
<feComposite in2="hardAlpha" operator="out"/>
<feColorMatrix type="matrix" values="0 0 0 0 0.614771 0 0 0 0 0.70094 0 0 0 0 0.806257 0 0 0 1 0"/>
<feBlend mode="normal" in2="BackgroundImageFix" result="effect1_dropShadow_18_632"/>
<feBlend mode="normal" in="SourceGraphic" in2="effect1_dropShadow_18_632" result="shape"/>
</filter>
<clipPath id="clip0_18_632">
<rect x="8" y="4" width="203" height="288" rx="10" fill="white"/>
</clipPath>
</defs>
</svg>

<svg xmlns="http://www.w3.org/2000/svg" width="219" height="304" fill="none" viewBox="0 0 219 304"><g filter="url(#a)"><g clip-path="url(#b)"><rect width="203" height="288" x="8" y="4" fill="#fff" rx="10"/><path fill="#211c1d" d="M16.03 31.127c0-9.629 3.704-14.974 10.35-14.974 2.143 0 4.205.58 5.726 1.621 1.322.861 2.122 1.962 2.122 2.883 0 .861-.62 1.502-1.48 1.502-.561 0-.982-.22-1.703-.921-1.441-1.422-2.943-2.062-4.724-2.062-4.465 0-6.827 3.924-6.887 11.41h.16c.921-2.441 3.784-4.163 6.907-4.163 5.085 0 8.648 3.663 8.648 8.889 0 5.505-3.763 9.249-9.329 9.249-3.383 0-6.086-1.402-7.727-3.984-1.382-2.203-2.062-5.305-2.062-9.45m3.905 4.305c0 3.583 2.482 6.126 6.025 6.126 3.444 0 5.746-2.423 5.746-6.106 0-3.644-2.322-6.046-5.886-6.046-3.463 0-5.885 2.482-5.885 6.026M24.032 72a.39.39 0 0 1-.393-.388c0-.72 1.293-3.41 1.551-5.516.028-.227-.304-.31-.426-.117-.666 1.057-1.574 2.536-3.786 2.484l-.043.002-.086.002c-2.402 0-4.349-2.113-4.349-4.719 0-2.605 1.947-4.718 4.35-4.718.468 0 .92.08 1.343.23.098.035.2-.079.15-.17a5 5 0 0 1-.59-2.373C21.753 54.148 23.625 52 26 52s4.247 2.148 4.247 4.717a5 5 0 0 1-.59 2.373c-.05.091.052.205.15.17a4 4 0 0 1 1.344-.23c2.402 0 4.349 2.112 4.349 4.718s-1.947 4.719-4.35 4.719l-.085-.002-.043-.002c-2.212.052-3.12-1.427-3.786-2.484-.122-.194-.454-.11-.426.117.258 2.105 1.551 4.795 1.551 5.515a.39.39 0 0 1-.393.389zM202.969 264.873c0 9.629-3.703 14.974-10.35 14.974-2.142 0-4.204-.58-5.725-1.621-1.322-.861-2.123-1.962-2.123-2.883 0-.861.621-1.502 1.482-1.502.56 0 .981.221 1.702.921 1.441 1.422 2.942 2.062 4.724 2.062 4.465 0 6.827-3.924 6.887-11.411h-.16c-.921 2.442-3.784 4.164-6.907 4.164-5.085 0-8.648-3.663-8.648-8.889 0-5.505 3.763-9.249 9.329-9.249 3.383 0 6.086 1.402 7.727 3.984 1.382 2.202 2.062 5.306 2.062 9.45m-3.904-4.305c0-3.583-2.482-6.126-6.025-6.126-3.444 0-5.746 2.423-5.746 6.106 0 3.644 2.322 6.046 5.886 6.046 3.463 0 5.885-2.482 5.885-6.026M194.968 224a.39.39 0 0 1 .393.389c0 .72-1.293 3.41-1.551 5.515-.028.227.304.311.426.117.666-1.057 1.574-2.536 3.786-2.484l.043-.002.086-.002c2.402 0 4.349 2.113 4.349 4.719s-1.947 4.718-4.349 4.718c-.469 0-.921-.081-1.344-.23-.099-.035-.199.079-.15.17.375.697.59 1.508.59 2.373 0 2.569-1.872 4.717-4.247 4.717s-4.247-2.148-4.247-4.717c0-.865.215-1.676.59-2.373.049-.091-.051-.205-.15-.17-.423.149-.875.23-1.344.23-2.402 0-4.349-2.112-4.349-4.718s1.947-4.719 4.349-4.719l.086.002.043.002c2.212-.052 3.12 1.427 3.786 2.484.122.194.454.11.426-.117-.258-2.105-1.551-4.795-1.551-5.515a.39.39 0 0 1 .393-.389zM60.84 76a.933.933 0 0 1-.933-.933c0-1.728 3.063-8.184 3.675-13.237.066-.543-.72-.745-1.01-.28-1.576 2.536-3.726 6.086-8.965 5.962l-.102.003-.204.005C47.61 67.52 43 62.45 43 56.196s4.612-11.324 10.3-11.324c1.111 0 2.18.194 3.183.552.234.083.472-.19.356-.409a12.1 12.1 0 0 1-1.397-5.694C55.442 33.156 59.875 28 65.5 28s10.058 5.156 10.058 11.32c0 2.078-.509 4.022-1.397 5.695-.116.22.122.492.356.409a9.4 9.4 0 0 1 3.182-.552c5.69 0 10.301 5.07 10.301 11.324S83.388 67.52 77.7 67.52q-.104 0-.205-.005l-.102-.003c-5.239.124-7.389-3.426-8.966-5.962-.289-.465-1.075-.263-1.009.28.612 5.053 3.674 11.509 3.674 13.237a.933.933 0 0 1-.932.933zM60.84 220a.933.933 0 0 0-.933.933c0 1.728 3.063 8.184 3.675 13.237.066.543-.72.745-1.01.28-1.576-2.536-3.726-6.086-8.965-5.962l-.102-.003a5 5 0 0 0-.204-.005c-5.69 0-10.301 5.07-10.301 11.324s4.612 11.324 10.3 11.324c1.111 0 2.18-.194 3.183-.552.234-.083.472.189.356.409a12.1 12.1 0 0 0-1.397 5.694c0 6.165 4.433 11.321 10.058 11.321s10.058-5.156 10.058-11.321c0-2.076-.509-4.021-1.397-5.694-.116-.22.122-.492.356-.409a9.4 9.4 0 0 0 3.182.552c5.69 0 10.301-5.07 10.301-11.324s-4.612-11.324-10.3-11.324a5 5 0 0 0-.205.005l-.102.003c-5.239-.124-7.389 3.426-8.966 5.962-.289.465-1.075.263-1.009-.28.612-5.053 3.674-11.509 3.674-13.237a.933.933 0 0 0-.932-.933zM148.84 76a.93.93 0 0 1-.932-.933c0-1.728 3.062-8.184 3.674-13.237.066-.543-.72-.745-1.009-.28-1.577 2.536-3.727 6.086-8.966 5.962l-.102.003-.204.005c-5.689 0-10.301-5.07-10.301-11.324s4.612-11.324 10.301-11.324c1.11 0 2.18.194 3.182.552.234.083.472-.19.356-.409a12.1 12.1 0 0 1-1.397-5.694c0-6.165 4.433-11.321 10.058-11.321s10.058 5.156 10.058 11.32c0 2.078-.509 4.022-1.397 5.695-.116.22.122.492.356.409a9.4 9.4 0 0 1 3.182-.552c5.689 0 10.301 5.07 10.301 11.324s-4.612 11.324-10.301 11.324q-.102 0-.204-.005l-.102-.003c-5.239.124-7.389-3.426-8.966-5.962-.289-.465-1.075-.263-1.009.28.612 5.053 3.674 11.509 3.674 13.237a.93.93 0 0 1-.932.933zM60.84 172a.933.933 0 0 1-.933-.933c0-1.728 3.063-8.184 3.675-13.237.066-.543-.72-.745-1.01-.28-1.576 2.536-3.726 6.086-8.965 5.962l-.102.003a5 5 0 0 1-.204.005c-5.69 0-10.301-5.07-10.301-11.324s4.612-11.324 10.3-11.324c1.111 0 2.18.194 3.183.552.234.083.472-.189.356-.409a12.1 12.1 0 0 1-1.397-5.694c0-6.165 4.433-11.321 10.058-11.321s10.058 5.156 10.058 11.321c0 2.076-.509 4.021-1.397 5.694-.116.22.122.492.356.409a9.4 9.4 0 0 1 3.182-.552c5.69 0 10.301 5.07 10.301 11.324s-4.612 11.324-10.3 11.324a5 5 0 0 1-.205-.005l-.102-.003c-5.239.124-7.389-3.426-8.966-5.962-.289-.465-1.075-.263-1.009.28.612 5.053 3.674 11.509 3.674 13.237a.933.933 0 0 1-.932.933zM148.84 172a.933.933 0 0 1-.932-.933c0-1.728 3.062-8.184 3.674-13.237.066-.543-.72-.745-1.009-.28-1.577 2.536-3.727 6.086-8.966 5.962l-.102.003a5 5 0 0 1-.204.005c-5.689 0-10.301-5.07-10.301-11.324s4.612-11.324 10.301-11.324c1.11 0 2.18.194 3.182.552.234.083.472-.189.356-.409a12.1 12.1 0 0 1-1.397-5.694c0-6.165 4.433-11.321 10.058-11.321s10.058 5.156 10.058 11.321c0 2.076-.509 4.021-1.397 5.694-.116.22.122.492.356.409a9.4 9.4 0 0 1 3.182-.552c5.689 0 10.301 5.07 10.301 11.324s-4.612 11.324-10.301 11.324q-.102 0-.204-.005l-.102-.003c-5.239.124-7.389-3.426-8.966-5.962-.289-.465-1.075-.263-1.009.28.612 5.053 3.674 11.509 3.674 13.237a.933.933 0 0 1-.932.933zM148.84 220a.933.933 0 0 0-.932.933c0 1.728 3.062 8.184 3.674 13.237.066.543-.72.745-1.009.28-1.577-2.536-3.727-6.086-8.966-5.962l-.102-.003a5 5 0 0 0-.204-.005c-5.689 0-10.301 5.07-10.301 11.324s4.612 11.324 10.301 11.324c1.11 0 2.18-.194 3.182-.552.234-.083.472.189.356.409a12.1 12.1 0 0 0-1.397 5.694c0 6.165 4.433 11.321 10.058 11.321s10.058-5.156 10.058-11.321c0-2.076-.509-4.021-1.397-5.694-.116-.22.122-.492.356-.409a9.4 9.4 0 0 0 3.182.552c5.689 0 10.301-5.07 10.301-11.324s-4.612-11.324-10.301-11.324q-.102 0-.204.005l-.102.003c-5.239-.124-7.389 3.426-8.966 5.962-.289.465-1.075.263-1.009-.28.612-5.053 3.674-11.509 3.674-13.237a.933.933 0 0 0-.932-.933z"/></g></g><defs><clipPath id="b"><rect width="203" height="288" x="8" y="4" fill="#fff" rx="10"/></clipPath><filter id="a" width="219" height="304" x="0" y="0" color-interpolation-filters="sRGB" filterUnits="userSpaceOnUse"><feFlood flood-opacity="0" result="BackgroundImageFix"/><feColorMatrix in="SourceAlpha" result="hardAlpha" values="0 0 0 0 0 0 0 0 0 0 0 0 0 0 0 0 0 0 127 0"/><feOffset dy="4"/><feGaussianBlur stdDeviation="4"/><feComposite in2="hardAlpha" operator="out"/><feColorMatrix values="0 0 0 0 0.614771 0 0 0 0 0.70094 0 0 0 0 0.806257 0 0 0 1 0"/><feBlend in2="BackgroundImageFix" result="effect1_dropShadow_18_632"/><feBlend in="SourceGraphic" in2="effect1_dropShadow_18_632" result="shape"/></filter></defs></svg>
